!!!OTL: 110c. Ritter und Maegdelein.
!!!ARE: Europa, Mitteleuropa, Deutschland, Wetterau
!!!SCT: E0110D
!!!TXL: @@DE
!!!YEM: Copyright 1995, estate of Helmut Schaffrath.
**kern	**text
*ICvox	*
*M3/4	*
*k[f#]	*
*g:	*
!LO:TX:a:t=Aus der Wetterau.	!
{8d	Es
=1	=1
8g	ſpielt
8a	ein
4.b	Graf
8a	mit
=2	=2
8b	ei-
8cc	-ner
4.dd}	Magd,
{8b	ſie
=3	=3
8cc	ſpiel-
8dd	-ten
4ee	al-
4dd	-le
=4	=4
4cc	bei-
4b	-de,
8r}	.
{8g	und
=5	=5
8b	als
8dd	der
4.a	hel-
8cc	-le
=6	=6
8b	Morg'n
8dd	an-
4.g}	-brach,
{8a	da
=7	=7
8b	fing
8cc	ſie
4dd	an
4b	ʒu
=8	=8
4a	wei-
4g	-nen.
8r}	.
==	==
!!!AGN: erzaehlendes Volks - Lied, Sage, Liebe, Leid, Tod, Ballade ?
!!!ONB: ESAC (Essen Associative Code) Database: ERK1
!!!AMT: simple triple
!!!AIN: vox
!!!EED: Helmut Schaffrath
!!!EEV: 1.0
!!!GTL: Liebesgeschichten mit tragischem Schluss
!!!URL-scan: https://rosdok.uni-rostock.de/mcrviewer/recordIdentifier/rosdok_ppn745146120/iview2/phys_0462.iview2?x=-422.27491384562836&y=-24.616220630938187&scale=0.554360769283424&rotation=0&layout=singlePageLayout
!!!ENC: Anna Maria Matuszewska
!!!EEV: 2024/02/12
*-	*-
